Newaita-dark/actions/scalable/run-build-install-root.svg

<?xml version="1.0" encoding="UTF-8"?>
<svg xmlns="http://www.w3.org/2000/svg" xmlns:xlink="http://www.w3.org/1999/xlink" width="512pt" height="512pt" viewBox="0 0 512 512" version="1.1">
<g id="surface1">
<path style=" stroke:none;fill-rule:nonzero;fill:rgb(74.117649%,74.117649%,74.117649%);fill-opacity:1;" d="M 232.855469 25.167969 C 221.128906 25.167969 211.6875 34.609375 211.6875 46.335938 L 211.6875 72.191406 C 190.363281 76.996094 170.414062 85.355469 152.492188 96.617188 L 134.277344 78.402344 C 125.984375 70.109375 112.632812 70.109375 104.339844 78.402344 L 74.402344 108.339844 C 66.109375 116.632812 66.109375 129.984375 74.402344 138.277344 L 92.617188 156.492188 C 81.355469 174.414062 72.996094 194.363281 68.191406 215.6875 L 42.335938 215.6875 C 30.609375 215.6875 21.167969 225.128906 21.167969 236.855469 L 21.167969 279.195312 C 21.167969 290.921875 30.609375 300.363281 42.335938 300.363281 L 68.191406 300.363281 C 72.996094 321.6875 81.355469 341.636719 92.617188 359.554688 L 74.402344 377.773438 C 66.109375 386.066406 66.109375 399.417969 74.402344 407.710938 L 104.339844 437.648438 C 112.632812 445.9375 125.984375 445.9375 134.277344 437.648438 L 152.492188 419.429688 C 170.414062 430.695312 190.363281 439.054688 211.6875 443.855469 L 211.6875 469.710938 C 211.6875 481.4375 221.128906 490.878906 232.855469 490.878906 L 275.191406 490.878906 C 286.921875 490.878906 296.359375 481.4375 296.363281 469.710938 L 296.363281 411.125 C 282.890625 414.816406 268.699219 416.789062 254.023438 416.789062 C 166.066406 416.789062 95.257812 345.980469 95.257812 258.023438 C 95.257812 170.070312 166.066406 99.257812 254.023438 99.257812 C 341.980469 99.257812 412.789062 170.070312 412.789062 258.023438 C 412.789062 272.699219 410.816406 286.890625 407.125 300.363281 L 465.710938 300.363281 C 477.4375 300.363281 486.878906 290.921875 486.878906 279.195312 L 486.878906 236.855469 C 486.878906 225.128906 477.4375 215.6875 465.710938 215.6875 L 439.855469 215.6875 C 435.054688 194.363281 426.695312 174.414062 415.429688 156.492188 L 433.644531 138.277344 C 441.9375 129.984375 441.9375 116.632812 433.644531 108.339844 L 403.710938 78.402344 C 395.417969 70.109375 382.066406 70.109375 373.773438 78.402344 L 355.554688 96.617188 C 337.636719 85.355469 317.6875 76.996094 296.363281 72.191406 L 296.363281 46.335938 C 296.363281 34.609375 286.921875 25.167969 275.191406 25.167969 Z M 232.855469 25.167969 "/>
<path style=" stroke:none;fill-rule:nonzero;fill:rgb(93.725491%,32.549021%,31.37255%);fill-opacity:1;" d="M 220.28125 179.527344 C 216.199219 179.363281 212.230469 180.871094 209.285156 183.699219 C 206.339844 186.527344 204.675781 190.433594 204.671875 194.515625 L 204.671875 321.527344 C 204.671875 326.933594 207.582031 331.921875 212.285156 334.582031 C 216.988281 337.246094 222.757812 337.171875 227.394531 334.394531 L 333.234375 270.886719 C 337.753906 268.175781 340.519531 263.292969 340.519531 258.023438 C 340.519531 252.753906 337.753906 247.871094 333.234375 245.160156 L 227.394531 181.652344 C 225.238281 180.359375 222.792969 179.628906 220.28125 179.527344 Z M 234.675781 221.011719 L 296.363281 258.023438 L 234.675781 295.035156 Z M 234.675781 221.011719 "/>
<path style=" stroke:none;fill-rule:nonzero;fill:rgb(93.725491%,32.549021%,31.37255%);fill-opacity:1;" d="M 475.441406 361.878906 C 475.605469 357.796875 474.101562 353.828125 471.273438 350.882812 C 468.445312 347.9375 464.539062 346.269531 460.453125 346.269531 L 333.441406 346.269531 C 328.039062 346.269531 323.050781 349.179688 320.386719 353.882812 C 317.726562 358.585938 317.796875 364.355469 320.578125 368.992188 L 384.085938 474.832031 C 386.796875 479.351562 391.679688 482.113281 396.949219 482.113281 C 402.214844 482.113281 407.097656 479.351562 409.8125 474.832031 L 473.316406 368.992188 C 474.609375 366.835938 475.339844 364.390625 475.441406 361.878906 Z M 433.957031 376.273438 L 396.945312 437.957031 L 359.9375 376.273438 Z M 433.957031 376.273438 "/>
</g>
</svg>

<svg xmlns="http://www.w3.org/2000/svg" width="512pt" height="512pt" viewBox="0 0 512 512"><path d="M232.855 25.168a21.122 21.122 0 0 0-21.167 21.168V72.19a189.457 189.457 0 0 0-59.196 24.426l-18.215-18.215a21.122 21.122 0 0 0-29.937 0L74.402 108.34a21.122 21.122 0 0 0 0 29.937l18.215 18.215a189.457 189.457 0 0 0-24.426 59.196H42.336a21.122 21.122 0 0 0-21.168 21.167v42.34a21.122 21.122 0 0 0 21.168 21.168H68.19a189.397 189.397 0 0 0 24.426 59.192l-18.215 18.218a21.122 21.122 0 0 0 0 29.938l29.938 29.937a21.13 21.13 0 0 0 29.937 0l18.215-18.218a189.272 189.272 0 0 0 59.196 24.425v25.856a21.122 21.122 0 0 0 21.167 21.168h42.336a21.126 21.126 0 0 0 21.172-21.168v-58.586c-13.472 3.691-27.664 5.664-42.34 5.664-87.957 0-158.765-70.809-158.765-158.766 0-87.953 70.808-158.765 158.765-158.765 87.957 0 158.766 70.812 158.766 158.765 0 14.676-1.973 28.868-5.664 42.34h58.586a21.122 21.122 0 0 0 21.168-21.168v-42.34a21.122 21.122 0 0 0-21.168-21.167h-25.856a189.272 189.272 0 0 0-24.425-59.196l18.215-18.215a21.122 21.122 0 0 0 0-29.937L403.71 78.402a21.122 21.122 0 0 0-29.938 0l-18.218 18.215a189.397 189.397 0 0 0-59.192-24.426V46.336a21.123 21.123 0 0 0-21.172-21.168zm0 0" fill="#bdbdbd"/><path d="M220.281 179.527a15.005 15.005 0 0 0-10.996 4.172 15.015 15.015 0 0 0-4.613 10.817v127.011a15.006 15.006 0 1 0 22.723 12.867l105.84-63.507a15 15 0 0 0 0-25.727l-105.84-63.508a15.01 15.01 0 0 0-7.114-2.125zm14.395 41.485l61.687 37.011-61.687 37.012zm0 0M475.441 361.879a15.001 15.001 0 0 0-14.988-15.61H333.441a15.006 15.006 0 0 0-12.863 22.723l63.508 105.84a14.996 14.996 0 0 0 12.863 7.281 15.006 15.006 0 0 0 12.863-7.281l63.504-105.84a15.01 15.01 0 0 0 2.125-7.113zm-41.484 14.394l-37.012 61.684-37.007-61.684zm0 0" fill="#ef5350"/></svg>
